X: 49
T: Missa De sancta cruce / Credo
N: Derived from Rue1011c-Missa_De_sancta_cruce-Credo.krn
C: Pierre de la Rue
%%abc-version 2.0
%%abcx-abcm2ps-target-version 5.9.1 (29 Sep 2008)
%%abc-creator hum2abc beta
%%abcx-conversion-date 2019/02/17 08:01:11
%%abc-edited-by Jesse Rodin
%%abc-edited-by Chris Gage 10-08-2012
%%abcx-initial-encoding-date 2012/10/13/
%%humdrum-veritas 3942987068
%%humdrum-veritas-data 1200666160
%%linebreak <none>
%%barnumbers 0
L: 1/4
M: 3/1
Q: 1/2=120
V: 1 clef=treble
V: 2 clef=treble
V: 3 clef=treble-8
V: 4 clef=treble-8
V: 5 clef=bass
K: F
[V:1] z12 | 
[V:2] G4G2G2G2B2- | 
[V:3] z12 | 
[V:4] z12 | 
[V:5] z4z4G,4 | 
[V:1] z4z4d4 | 
[V:2] B2A2G2FED4- | 
[V:3] z12 | 
[V:4] z12 | 
[V:5] G,2G,2G,2B,4A,2 | 
[V:1] d2d2d2f4e2 | 
[V:2] D4z2D2F4 | 
[V:3] z12 | 
[V:4] z4d4d2d2 | 
[V:5] G,2F,E,D,8- | 
[V:1] d3c/B/A8 | 
[V:2] F2F2D2C2F3G | 
[V:3] z12 | 
[V:4] d2f4e2d3c/B/ | 
[V:5] D,4z4z2D,2 | 
[V:1] z2A2c2c4c2 | 
[V:2] A2A4GFE4 | 
[V:3] z12 | 
[V:4] A8z4 | 
[V:5] F,2F,4F,2A,4 | 
[V:1] d2f3eede2e2 | 
[V:2] D2A3GGFG4 | 
[V:3] z12 | 
[V:4] z2A2c2c4c2 | 
[V:5] D,3D,C,8 | 
[V:1] A2ABc2d3^cc2 | 
[V:2] F2A3GG2A4 | 
[V:3] z12 | 
[V:4] d2f3eede4 | 
[V:5] F,2F,G,A,2B,2A,4 | 
[V:1] d8z4 | 
[V:2] z2F4EDE2D2 | 
[V:3] z12 | 
[V:4] z2d4cBc2B2 | 
[V:5] D,8z4 | 
[V:1] z4z2A4GF | 
[V:2] F2G2A4z4 | 
[V:3] z12 | 
[V:4] d2e2f8 | 
[V:5] z4z2F,4E,D, | 
[V:1] G2F2A2B2c4 | 
[V:2] z2A4GFE2A2 | 
[V:3] z12 | 
[V:4] z2f4edc2f2 | 
[V:5] E,2D,2F,2G,2A,2A,2- | 
[V:1] z4z2c4BA | 
[V:2] E2A2G2E2A3G | 
[V:3] z12 | 
[V:4] c2f2e2c2f3e | 
[V:5] A,2G,F,G,2A,2F,4 | 
[V:1] B2c2A4z2c2- | 
[V:2] F2EDC4z2A2- | 
[V:3] z12 | 
[V:4] d2c4BAB2c2 | 
[V:5] z2A,4G,F,G,2A,2 | 
[V:1] c2BAB2c2A2c2 | 
[V:2] A2GFG2A2F2G2- | 
[V:3] z12 | 
[V:4] A4z2c4BA | 
[V:5] F,4z2A,4G,F, | 
[V:1] BAAGA2G4^F2 | 
[V:2] GEF3EDCD2D2 | 
[V:3] z12 | 
[V:4] B2c2A2B2A4 | 
[V:5] G,2A,2F,2G,2D,4 | 
[V:1] G8z4 | 
[V:2] D2G2G2G3FD2 | 
[V:3] G12- | 
[V:4] B8z4 | 
[V:5] G,8z4 | 
[V:1] z12 | 
[V:2] _E2DCB,2B,2B,4 | 
[V:3] G12 | 
[V:4] z2B2B2B2G2G2- | 
[V:5] z2G,2G,2G,3F,_E,2- | 
[V:1] z4z2d2d2d2- | 
[V:2] z2B,2B,CDEF2F2- | 
[V:3] B12- | 
[V:4] GABcd8 | 
[V:5] E,2D,C,B,,2B,,2B,,4- | 
[V:1] dcB4AGF2F2 | 
[V:2] F2F4D2DEFG | 
[V:3] B12 | 
[V:4] z2d4d2d2d2 | 
[V:5] B,,4z2B,,2B,,C,D,E, | 
[V:1] F4z2FGABc2- | 
[V:2] A2A4A4GF | 
[V:3] A12 | 
[V:4] c2f4edc4- | 
[V:5] F,2F,4F,4C,2- | 
[V:1] c2G2G3ABcd2- | 
[V:2] E4z4z4 | 
[V:3] c8B2G2 | 
[V:4] c2c2G4z2B2 | 
[V:5] C,2C,3D,E,F,G,2G,2 | 
[V:1] dAdcBAA4G2 | 
[V:2] z12 | 
[V:3] d2A2c4B4 | 
[V:4] A2F2A3B/c/d4 | 
[V:5] D,4z4z4 | 
[V:1] A4z4z4 | 
[V:2] A4A2A2F3E | 
[V:3] A8z4 | 
[V:4] z4d4d2d2 | 
[V:5] D,12 | 
[V:1] d4d2d2B3A | 
[V:2] D8G4 | 
[V:3] B12- | 
[V:4] B3AG8 | 
[V:5] z12 | 
[V:1] G8z2c2 | 
[V:2] G2G2E2D2C2G2- | 
[V:3] B4G8 | 
[V:4] z2B2B2B2c3B | 
[V:5] G,4G,2G,2E,3D, | 
[V:1] c2e2d2f4e2- | 
[V:2] G2FEF4z2G2- | 
[V:3] G2A4B2c4 | 
[V:4] cBAGF3GG4 | 
[V:5] C,4D,4C,2C,2 | 
[V:1] e2c2c2c2B2d2- | 
[V:2] GFEDC4D2B2- | 
[V:3] G8B4- | 
[V:4] c4e2e2d4- | 
[V:5] C,4C,D,E,C,G,4- | 
[V:1] dcB4AGA4 | 
[V:2] BAG4FEF4 | 
[V:3] B4d8 | 
[V:4] d2d2B2B2F3G | 
[V:5] G,4G,4D,4 | 
[V:1] z2A2A2c4c2 | 
[V:2] z2F2F2F4F2 | 
[V:3] c8A4- | 
[V:4] A4z2A2A2c2- | 
[V:5] z2F,2F,2F,4E,D, | 
[V:1] c4d8 | 
[V:2] E4D8 | 
[V:3] A4B8 | 
[V:4] c2c2f4f2f2 | 
[V:5] C,4B,,8 | 
[V:1] z2c2c2c3BG2 | 
[V:2] G4G2G4E2 | 
[V:3] G8c4 | 
[V:4] e2c4BAG4 | 
[V:5] C,4C,2C,4E,2 | 
[V:1] F2BAAGc4=B2 | 
[V:2] F2D2E2G3FD2 | 
[V:3] A2B2c4d4 | 
[V:4] A2F2A2G2G4 | 
[V:5] D,4C,4G,4 | 
[V:1] c4z2A2B2c2 | 
[V:2] E4z4z4 | 
[V:3] c8z2e2 | 
[V:4] z2G2A2c2B2A2 | 
[V:5] C,4z2F,2G,2A,2- | 
[V:1] A2B3GABG2A2- | 
[V:2] z12 | 
[V:3] f2g3efge2f2- | 
[V:4] c2B3AF2z2c2- | 
[V:5] A,2G,4D,2G,2F,2- | 
[V:1] AFGABAGFG4 | 
[V:2] z12 | 
[V:3] fde4d3^c^c2 | 
[V:4] cAc2B2A4G2 | 
[V:5] F,2C,2G,F,E,D,E,4 | 
[V:1] F8z4 | 
[V:2] A4A3FB2A2- | 
[V:3] d12 | 
[V:4] A8z4 | 
[V:5] D,8z4 | 
[V:1] z12 | 
[V:2] A2GFE2F4ED | 
[V:3] z12 | 
[V:4] z12 | 
[V:5] A,4A,3F,B,2A,2- | 
[V:1] z12 | 
[V:2] CDEFG2A4GF | 
[V:3] z12 | 
[V:4] z4z2F3GAB | 
[V:5] A,2G,F,E,2F,2D,4 | 
[V:1] z12 | 
[V:2] E4z4z4 | 
[V:3] z12 | 
[V:4] c2A3Bcde2d2- | 
[V:5] z2C,3D,E,F,G,F,E,D, | 
[V:1] z12 | 
[V:2] z4z2D3EFG | 
[V:3] z12 | 
[V:4] d^c^c2d2A2B4 | 
[V:5] E,4D,4z4 | 
[V:1] z2F3GABc2A2- | 
[V:2] A2A2A3GE2F2- | 
[V:3] z12 | 
[V:4] A4z2d2c2d2- | 
[V:5] z12 | 
[V:1] ABcde2d3^cc2 | 
[V:2] FGABGFEDE4 | 
[V:3] z12 | 
[V:4] d2cBc2d2A4 | 
[V:5] z12 | 
[V:1] d2d2d2d2f3e | 
[V:2] D4z2D2D2D2 | 
[V:3] f12- | 
[V:4] A2B4A2A4 | 
[V:5] D,4D,2D,2D,2D,2 | 
[V:1] d2cBA2B4A2- | 
[V:2] F2EDC2D3A,C2 | 
[V:3] f12 | 
[V:4] z12 | 
[V:5] D,4F,2B,,2F,4 | 
[V:1] AGG2A4z4 | 
[V:2] B,4A,4z4 | 
[V:3] d8c4 | 
[V:4] z4z2A4G2 | 
[V:5] G,3F,D,2F,2E,4 | 
[V:1] z2D2F3GA2B2 | 
[V:2] z12 | 
[V:3] d8d4 | 
[V:4] A2B4AGF2G2 | 
[V:5] D,8z4 | 
[V:1] c2c2c2d3ef2 | 
[V:2] A4A2A2F3G | 
[V:3] c6A2B4 | 
[V:4] A8z4 | 
[V:5] F,4F,2F,2D,4 | 
[V:1] e2d4c4=B2 | 
[V:2] A2B2G6G2 | 
[V:3] c2d2e3cd4 | 
[V:4] z4z4z2d2 | 
[V:5] C,2B,,2C,4G,4 | 
[V:1] c4z4z4 | 
[V:2] G4z4z4 | 
[V:3] c4z2A2A2c2- | 
[V:4] e4c2d2c2A2 | 
[V:5] C,4F,4F,2F,E, | 
[V:1] z12 | 
[V:2] z4z4G4 | 
[V:3] cAcde2d4^c2 | 
[V:4] c6BAG4 | 
[V:5] F,G,A,4G,F,E,2E,2 | 
[V:1] z2A2A2c3Acd | 
[V:2] F3DFGA4GF | 
[V:3] d4z4z4 | 
[V:4] A12 | 
[V:5] D,4z4z4 | 
[V:1] e2f2e2d3^cc2 | 
[V:2] G2A2GFEDE4 | 
[V:3] z12 | 
[V:4] z12 | 
[V:5] z12 | 
[V:1] d4z4z4 | 
[V:2] D8z4 | 
[V:3] f12- | 
[V:4] A4A2A2c2d2- | 
[V:5] D,6D,2A,2B,2 | 
[V:1] A4A2A2c2d2- | 
[V:2] z12 | 
[V:3] f8f4 | 
[V:4] d2c2A2c2cBAG | 
[V:5] F,2F,4A,3G,F,E, | 
[V:1] d2c2A2B2cBAG | 
[V:2] z12 | 
[V:3] f3ec2d4^c2 | 
[V:4] F4z4z4 | 
[V:5] D,2F,4E,D,E,4 | 
[V:1] F4z2c4c2 | 
[V:2] A4A2A3GE2 | 
[V:3] d4c8 | 
[V:4] A4A2A2A4 | 
[V:5] D,4z4z4 | 
[V:1] d3Bdef4d2 | 
[V:2] D4F8 | 
[V:3] A2B4AGA2B2 | 
[V:4] F8F4 | 
[V:5] D,8D,4 | 
[V:1] e2c4c2B2d2- | 
[V:2] E4E2G3FD2 | 
[V:3] c8z4 | 
[V:4] G2G2A2G2B3A | 
[V:5] C,4z2C,2G,3F, | 
[V:1] dcA2G2B3AF2 | 
[V:2] F2C2G3FD2F2 | 
[V:3] z2c4B2d3c | 
[V:4] F2F2G4z4 | 
[V:5] D,2F,2C,2G,3F,D,2 | 
[V:1] z2c2B2d3cA2 | 
[V:2] C2G3FDEF2F2 | 
[V:3] A2G2B3AF2c2- | 
[V:4] z12 | 
[V:5] F,2C,2G,3F,D,2F,2 | 
[V:1] G2B4A3GG2 | 
[V:2] G6F2G2E2 | 
[V:3] c2B2d3cB4 | 
[V:4] z4z4G4 | 
[V:5] C,2G,3F,D,2G,4 | 
[V:1] A12- | 
[V:2] F2E2F3E/D/C4- | 
[V:3] A12- | 
[V:4] c3BAGF4E2 | 
[V:5] z2C,2D,2D,2A,,4- | 
[V:1] A12 ||  
[V:2] C12 ||  
[V:3] A12 ||  
[V:4] E12 ||  
[V:5] A,,12 ||  
[V:1]  [K:F] [K:clef=treble][M:2/1]z4A4- | 
[V:2]  [K:F] [K:clef=treble][M:2/1]D8 | 
[V:3]  [K:F] [K:clef=treble-8][M:2/1]z8 | 
[V:4]  [K:F] [K:clef=treble-8][M:2/1]z8 | 
[V:5]  [K:F] [K:clef=bass][M:2/1]z8 | 
[V:1] A4c4 | 
[V:2] F4E4 | 
[V:3] z8 | 
[V:4] z8 | 
[V:5] z8 | 
[V:1] B4d4- | 
[V:2] G8 | 
[V:3] z8 | 
[V:4] z8 | 
[V:5] z8 | 
[V:1] d4A4 | 
[V:2] D4z2D2 | 
[V:3] z8 | 
[V:4] z8 | 
[V:5] z8 | 
[V:1] z2A2c2c2 | 
[V:2] F2F2FEFG | 
[V:3] z8 | 
[V:4] z8 | 
[V:5] z8 | 
[V:1] cBcde4- | 
[V:2] A6GF | 
[V:3] z8 | 
[V:4] z8 | 
[V:5] z8 | 
[V:1] e2dcdcde | 
[V:2] GFGAB2AG | 
[V:3] z8 | 
[V:4] z8 | 
[V:5] z8 | 
[V:1] f2edc2c2 | 
[V:2] F2F2E2F2 | 
[V:3] z8 | 
[V:4] z8 | 
[V:5] z8 | 
[V:1] B2c2A2B2 | 
[V:2] D2E2F2G2- | 
[V:3] z8 | 
[V:4] z8 | 
[V:5] z8 | 
[V:1] c2d3^cc2 | 
[V:2] GFEDE4 | 
[V:3] z8 | 
[V:4] z8 | 
[V:5] z8 | 
[V:1] d8 | 
[V:2] D8 | 
[V:3] z8 | 
[V:4] z4A4- | 
[V:5] D,8 | 
[V:1] z8 | 
[V:2] z8 | 
[V:3] z8 | 
[V:4] A4c4 | 
[V:5] F,4F,4 | 
[V:1] z8 | 
[V:2] z8 | 
[V:3] z8 | 
[V:4] c4e4 | 
[V:5] A,4z2A,2 | 
[V:1] z8 | 
[V:2] z8 | 
[V:3] z8 | 
[V:4] z2e2g4- | 
[V:5] C6B,A, | 
[V:1] z8 | 
[V:2] z8 | 
[V:3] z8 | 
[V:4] g2fef4 | 
[V:5] B,4A,4 | 
[V:1] z8 | 
[V:2] z8 | 
[V:3] z8 | 
[V:4] e4z2e2 | 
[V:5] z2A,2C4 | 
[V:1] z8 | 
[V:2] z8 | 
[V:3] z8 | 
[V:4] g4f2d2 | 
[V:5] B,2G,2A,2F,2 | 
[V:1] z8 | 
[V:2] z8 | 
[V:3] z8 | 
[V:4] e2d3cc2 | 
[V:5] G,2D,2E,3D,/E,/ | 
[V:1] z4d4 | 
[V:2] z8 | 
[V:3] z8 | 
[V:4] d2A2B4 | 
[V:5] F,2A,4G,2 | 
[V:1] c2A2B2G2 | 
[V:2] A4G2E2 | 
[V:3] z8 | 
[V:4] A4z4 | 
[V:5] A,4z4 | 
[V:1] A2F2EDE2 | 
[V:2] F2D2E2C2 | 
[V:3] z8 | 
[V:4] z8 | 
[V:5] z8 | 
[V:1] D4z4 | 
[V:2] B,A,B,2A,4 | 
[V:3] z8 | 
[V:4] d4c2A2 | 
[V:5] z4A,4 | 
[V:1] z8 | 
[V:2] z8 | 
[V:3] z8 | 
[V:4] B2G2A2F2 | 
[V:5] G,2E,2F,2D,2 | 
[V:1] z4B4 | 
[V:2] z8 | 
[V:3] z8 | 
[V:4] c3ABcde | 
[V:5] E,2C,2G,3E, | 
[V:1] A2F2G2E2 | 
[V:2] z8 | 
[V:3] z8 | 
[V:4] c2d4^c2 | 
[V:5] F,2D,2E,4 | 
[V:1] FGABc2BA- | 
[V:2] F4E2C2 | 
[V:3] z8 | 
[V:4] d4z4 | 
[V:5] D,4z4 | 
[V:1] AGG4^F2 | 
[V:2] D2B,2A,4 | 
[V:3] z8 | 
[V:4] z8 | 
[V:5] z8 | 
[V:1] G8 | 
[V:2] G,4z4 | 
[V:3] G8- | 
[V:4] z4d4 | 
[V:5] z8 | 
[V:1] z4d4 | 
[V:2] G8 | 
[V:3] G8 | 
[V:4] d4d4 | 
[V:5] z4G,4 | 
[V:1] d4d4 | 
[V:2] G4G4 | 
[V:3] B8 | 
[V:4] d8 | 
[V:5] G,4G,4 | 
[V:1] d8 | 
[V:2] F4A4- | 
[V:3] A8- | 
[V:4] d4f4- | 
[V:5] D,8 | 
[V:1] d4f4- | 
[V:2] A2G2F3E | 
[V:3] A8 | 
[V:4] f2e2d3c | 
[V:5] D,4D,4- | 
[V:1] f4d4 | 
[V:2] D2F4ED | 
[V:3] B8 | 
[V:4] d8 | 
[V:5] D,2D,2D,4 | 
[V:1] e3cc4 | 
[V:2] G3FEDE2 | 
[V:3] c8- | 
[V:4] G8 | 
[V:5] C,8 | 
[V:1] z2c4c2 | 
[V:2] z2F4F2 | 
[V:3] c8 | 
[V:4] A4A2A2 | 
[V:5] F,4F,2F,2 | 
[V:1] d3cBAB2- | 
[V:2] F2F2G4- | 
[V:3] B4G4 | 
[V:4] F2F2G2B2- | 
[V:5] B,,4_E,4 | 
[V:1] B2AGF4- | 
[V:2] G4z4 | 
[V:3] B8- | 
[V:4] B2c2d4- | 
[V:5] _E,4D,4 | 
[V:1] F4B4- | 
[V:2] D4F4- | 
[V:3] B8 | 
[V:4] d2d2d4- | 
[V:5] B,,6B,,2 | 
[V:1] B2B2B4 | 
[V:2] F2F2F4 | 
[V:3] B8 | 
[V:4] d4d4 | 
[V:5] B,,8 | 
[V:1] G2B4AG | 
[V:2] G8 | 
[V:3] B4G2B2- | 
[V:4] _e3dB3c | 
[V:5] _E,8 | 
[V:1] F8 | 
[V:2] z4A3A | 
[V:3] B2AGA4- | 
[V:4] d8- | 
[V:5] D,4D,4 | 
[V:1] z8 | 
[V:2] A2F4ED | 
[V:3] A2A2B4 | 
[V:4] d8 | 
[V:5] D,8 | 
[V:1] z4G4 | 
[V:2] E4E4 | 
[V:3] c8- | 
[V:4] z4G4 | 
[V:5] C,8- | 
[V:1] G4G4 | 
[V:2] E4E4 | 
[V:3] c8- | 
[V:4] G4G4 | 
[V:5] C,8 | 
[V:1] c4c4 | 
[V:2] F4F4 | 
[V:3] c8 | 
[V:4] A4F4 | 
[V:5] z8 | 
[V:1] B2GABGB2- | 
[V:2] G4G4 | 
[V:3] G8 | 
[V:4] B3cdcd2- | 
[V:5] z8 | 
[V:1] B2AGB3A | 
[V:2] F2EDG2FE | 
[V:3] B8 | 
[V:4] d2cBd2G2 | 
[V:5] z8 | 
[V:1] F2BAAGA2- | 
[V:2] D2B,2F4- | 
[V:3] d8 | 
[V:4] B3AF4- | 
[V:5] z8 | 
[V:1] A2G4^F2 | 
[V:2] F2EDC4 | 
[V:3] c4A4 | 
[V:4] F2G2A4 | 
[V:5] z8 | 
[V:1] G8- | 
[V:2] D8 | 
[V:3] B4G4 | 
[V:4] G8 | 
[V:5] z8 | 
[V:1] G8 | 
[V:2] z8 | 
[V:3] c4c4 | 
[V:4] z8 | 
[V:5] z4C,4 | 
[V:1] z8 | 
[V:2] z8 | 
[V:3] c4c4 | 
[V:4] z8 | 
[V:5] F,4F,4 | 
[V:1] z8 | 
[V:2] z8 | 
[V:3] d3cd2e2- | 
[V:4] z8 | 
[V:5] F,4F,2G,2- | 
[V:1] z8 | 
[V:2] z8 | 
[V:3] e2d4^c2 | 
[V:4] z8 | 
[V:5] G,F,E,D,E,4 | 
[V:1] A4A2B2- | 
[V:2] F4F2F2- | 
[V:3] d8- | 
[V:4] z8 | 
[V:5] D,8- | 
[V:1] B2A2d4 | 
[V:2] F2EDF2F2 | 
[V:3] d8 | 
[V:4] z8 | 
[V:5] D,8 | 
[V:1] c4c2d2- | 
[V:2] A4z2F2 | 
[V:3] z8 | 
[V:4] A4A2B2- | 
[V:5] z8 | 
[V:1] d2c2f4 | 
[V:2] G2A4GF | 
[V:3] z8 | 
[V:4] B2A2d4 | 
[V:5] z8 | 
[V:1] e3dcBd2- | 
[V:2] G2A4GF | 
[V:3] z8 | 
[V:4] c3BAGB2- | 
[V:5] z8 | 
[V:1] d2c2BAB2 | 
[V:2] G2A4GF | 
[V:3] z8 | 
[V:4] B2A2d4 | 
[V:5] z8 | 
[V:1] c4c2d2- | 
[V:2] G2A4B2- | 
[V:3] z8 | 
[V:4] c3BAGG2- | 
[V:5] z8 | 
[V:1] dcA2B4 | 
[V:2] BAA4G2 | 
[V:3] z8 | 
[V:4] G2F2G4 | 
[V:5] z8 | 
[V:1] A4z4 | 
[V:2] A8 | 
[V:3] f6f2 | 
[V:4] d8- | 
[V:5] D,8 | 
[V:1] z8 | 
[V:2] z8 | 
[V:3] f4f4 | 
[V:4] d8 | 
[V:5] D,4D,4 | 
[V:1] z8 | 
[V:2] z8 | 
[V:3] e4d4- | 
[V:4] z8 | 
[V:5] G,6F,E, | 
[V:1] z8 | 
[V:2] z8 | 
[V:3] d2cBc2d2 | 
[V:4] z8 | 
[V:5] F,2G,2E,2D,E, | 
[V:1] z8 | 
[V:2] z8 | 
[V:3] B2ABcde2 | 
[V:4] z8 | 
[V:5] F,G,A,4G,2 | 
[V:1] z8 | 
[V:2] z8 | 
[V:3] dcc4=B2 | 
[V:4] z4d4 | 
[V:5] F,E,D,C,D,4 | 
[V:1] z8 | 
[V:2] z8 | 
[V:3] c4A4 | 
[V:4] e4c4- | 
[V:5] C,4z2F,2 | 
[V:1] z8 | 
[V:2] z8 | 
[V:3] c4c4- | 
[V:4] c2BAG2A2- | 
[V:5] C,2F,2E,2F,2- | 
[V:1] z8 | 
[V:2] z8 | 
[V:3] c4c4 | 
[V:4] A2GFG4 | 
[V:5] F,2E,D,E,4 | 
[V:1] z4A4 | 
[V:2] A6A2 | 
[V:3] d4d4 | 
[V:4] A8- | 
[V:5] D,8 | 
[V:1] c4c4- | 
[V:2] A4A4 | 
[V:3] e6f2- | 
[V:4] A8- | 
[V:5] z8 | 
[V:1] c4c4 | 
[V:2] A8 | 
[V:3] f2ede4 | 
[V:4] A8 | 
[V:5] z8 | 
[V:1] d2Bcd2_e2- | 
[V:2] F3GA2B2- | 
[V:3] d3ef2g2- | 
[V:4] z8 | 
[V:5] z8 | 
[V:1] e2d4c2 | 
[V:2] B2A3GG2 | 
[V:3] gfd2_e4 | 
[V:4] z8 | 
[V:5] z8 | 
[V:1] d8 | 
[V:2] A8- | 
[V:3] d8 | 
[V:4] f4f2f2 | 
[V:5] D,8 | 
[V:1] f4f2f2 | 
[V:2] A8 | 
[V:3] z8 | 
[V:4] d2cBA2A2 | 
[V:5] D,8 | 
[V:1] d2cBA2A2 | 
[V:2] z8 | 
[V:3] z8 | 
[V:4] B2d4c2 | 
[V:5] G,4F,4 | 
[V:1] B2d4c2 | 
[V:2] z8 | 
[V:3] z8 | 
[V:4] B2AGFEF2 | 
[V:5] G,4D,4 | 
[V:1] B2AGFEF2 | 
[V:2] z8 | 
[V:3] z8 | 
[V:4] G4z4 | 
[V:5] z2B,4A,2 | 
[V:1] G2B4A2 | 
[V:2] z8 | 
[V:3] z8 | 
[V:4] z2d2f3e | 
[V:5] G,2F,E,D,2F,2 | 
[V:1] GFEDE4 | 
[V:2] z8 | 
[V:3] z8 | 
[V:4] edd4^c2 | 
[V:5] C,2D,2A,4 | 
[V:1] D8 | 
[V:2] A8 | 
[V:3] f4f2f2 | 
[V:4] d8- | 
[V:5] D,8- | 
[V:1] z8 | 
[V:2] A2A2A4 | 
[V:3] f8 | 
[V:4] d8 | 
[V:5] D,8 | 
[V:1] z8 | 
[V:2] B4A4- | 
[V:3] d6cB | 
[V:4] z8 | 
[V:5] z8 | 
[V:1] z8 | 
[V:2] A2GFG2A2 | 
[V:3] c2d2e2d2- | 
[V:4] z8 | 
[V:5] z8 | 
[V:1] z8 | 
[V:2] B2A4GF | 
[V:3] d2cBA2d2- | 
[V:4] z8 | 
[V:5] z8 | 
[V:1] z8 | 
[V:2] E4z2D2 | 
[V:3] d^c^c2d4 | 
[V:4] z8 | 
[V:5] z8 | 
[V:1] z8 | 
[V:2] F2F2FEDC | 
[V:3] z2d2f2f2 | 
[V:4] z8 | 
[V:5] z8 | 
[V:1] z8 | 
[V:2] DEFGA2B2- | 
[V:3] f2fedcd2 | 
[V:4] z8 | 
[V:5] z8 | 
[V:1] z4d4 | 
[V:2] B2A4G2 | 
[V:3] A2c2B4 | 
[V:4] z4d4 | 
[V:5] z8 | 
[V:1] c4c4 | 
[V:2] A8 | 
[V:3] A8 | 
[V:4] e4e4 | 
[V:5] z8 | 
[V:1] A8 | 
[V:2] z4z2F2 | 
[V:3] z4z2A2 | 
[V:4] f6ed | 
[V:5] z2D,2F,2F,2 | 
[V:1] z2A2c2c2 | 
[V:2] A2A2A2A2 | 
[V:3] c2c2c2c2 | 
[V:4] c4z2A2 | 
[V:5] F,2F,2F,4 | 
[V:1] c2c2c4 | 
[V:2] G8 | 
[V:3] c2e4c2- | 
[V:4] c2c2c2c2 | 
[V:5] C,8 | 
[V:1] e3ddcc2- | 
[V:2] G6F2 | 
[V:3] c2BAB2c2 | 
[V:4] G4z4 | 
[V:5] C,4G,2A,2 | 
[V:1] cAB2c2d2- | 
[V:2] G4G4 | 
[V:3] d4z2B2 | 
[V:4] B4A2B2 | 
[V:5] G,4z2G,2 | 
[V:1] d2c3AB2 | 
[V:2] z2F2G4- | 
[V:3] c4d4 | 
[V:4] F4B3G | 
[V:5] A,4G,4 | 
[V:1] c3BAGA2- | 
[V:2] G2F2E2D2 | 
[V:3] e2c3BAG | 
[V:4] G4z4 | 
[V:5] C,3D,E,2F,2 | 
[V:1] A2G3^FF2 | 
[V:2] D8 | 
[V:3] B4A4 | 
[V:4] z8 | 
[V:5] G,4D,4 | 
[V:1] [M:3/1]G12 | 
[V:2] [M:3/1]D12 | 
[V:3] [M:3/1]G4z4G4 | 
[V:4] [M:3/1]z4z4d4 | 
[V:5] [M:3/1]G,12- | 
[V:1] z4z4G4 | 
[V:2] z4z4D4 | 
[V:3] B8B4 | 
[V:4] d6c2B2A2 | 
[V:5] G,12 | 
[V:1] B8B4 | 
[V:2] G8G4 | 
[V:3] B6c2d2_e2 | 
[V:4] G8G4 | 
[V:5] z12 | 
[V:1] B8d4 | 
[V:2] G4F4G4 | 
[V:3] d8B4 | 
[V:4] G4B8 | 
[V:5] z12 | 
[V:1] c4B2A2B4 | 
[V:2] A4z4z4 | 
[V:3] c4d6c2 | 
[V:4] A4G2F2G4 | 
[V:5] z12 | 
[V:1] c4d6c2 | 
[V:2] A4G2F2G4 | 
[V:3] A4B6A2 | 
[V:4] A4d6e2 | 
[V:5] z12 | 
[V:1] c8d4 | 
[V:2] A8z4 | 
[V:3] A8B4 | 
[V:4] f8F4 | 
[V:5] F,6E,2D,4 | 
[V:1] e6c2d4 | 
[V:2] G4E4G4 | 
[V:3] c6A2B4 | 
[V:4] G4A4G4 | 
[V:5] C,8z4 | 
[V:1] c6A2B3c | 
[V:2] A4F2A2G4 | 
[V:3] A6F2G4 | 
[V:4] c8z4 | 
[V:5] F,8E,4 | 
[V:1] A6G2G4 | 
[V:2] F6EDE4 | 
[V:3] A4z4e4 | 
[V:4] c8c4 | 
[V:5] F,4C,8 | 
[V:1] A4z4e4 | 
[V:2] A,8z4 | 
[V:3] f6e2c4 | 
[V:4] c6B2G4 | 
[V:5] F,6G,2E,4 | 
[V:1] f6e2c4 | 
[V:2] A8A4 | 
[V:3] d4A8 | 
[V:4] A6B2c4 | 
[V:5] D,2E,2F,2G,2A,4 | 
[V:1] d4A4d4 | 
[V:2] A4F6G2 | 
[V:3] d6c2B2A2 | 
[V:4] F8z4 | 
[V:5] D,12 | 
[V:1] c6B2B2A2 | 
[V:2] A4F4G4 | 
[V:3] A8G4 | 
[V:4] F8B4 | 
[V:5] z12 | 
[V:1] A6GFG4 | 
[V:2] F4D4E4 | 
[V:3] A4B8 | 
[V:4] F4G8 | 
[V:5] z4z4E,4 | 
[V:1] A12- | 
[V:2] C4z4E4 | 
[V:3] A12- | 
[V:4] z4c6B2 | 
[V:5] F,6E,2C,4 | 
[V:1] A12- | 
[V:2] F6E2C4- | 
[V:3] A12- | 
[V:4] A2G2F8 | 
[V:5] D,8A,,4 | 
[V:1] A12- | 
[V:2] C2D2E8 | 
[V:3] A12- | 
[V:4] E4E8- | 
[V:5] A,,12- | 
[V:1] A12 |]  
[V:2] C4C8 |]  
[V:3] A12 |]  
[V:4] E12 |]  
[V:5] A,,12 |]  



